!!!COM: (Achille-) Claude Debussy
!!!OTL: [T165_Deb-w44p4-5h1m19-36]
**kern	**kern	**dynam	**kern	**kern	**dynam
!!pagebreak:original
*clefF4	*clefG2	*	*clefG2	*clefG2	*
*k[b-e-]	*k[b-e-]	*	*k[b-e-]	*k[b-e-]	*
*B-:	*B-:	*	*B-:	*B-:	*
*M3/4	*M3/4	*	*M3/4	*M3/4	*
=1	=1	=1	=1	=1	=1
*^	*^	*	*	*^	*
!	!	!LO:TX:b:i:t=dolce (effacé)	!	!	!	!	!	!
!	!	!LO:TX:a:B:t=Sans rigueur	!	!	!	!LO:TX:a:B:t=A	!	!
*v	*v	*	*	*	*	*v	*v	*
*	*v	*v	*	*	*	*
*	*	*	*	*Xtuplet	*
*^	*^	*	*	*^	*
!	!	!	!	!	!	!LO:TX:t=[half-dot]=66	!	!
!	!	!	!	!	!	!LO:TX:b:i:t=dolce	!	!
!	!	!LO:TX:t=[half-dot]=66	!	!	!	!LO:TX:a:B:t=Sans rigueur	!	!
4F	4G	(4f	2.B- 2.d	p	8aL	(4ddd~	12dddL	p
.	.	.	.	.	.	.	12aa	.
.	.	.	.	.	8dJ	.	.	.
.	.	.	.	.	.	.	12ddJ	.
4G	4FF	4g	.	.	4a'	4ddd~	12dddL	.
.	.	.	.	.	.	.	12aa	.
.	.	.	.	.	.	.	12ddJ	.
[4F	[4BBB-	[4f)	.	.	8dL	(4aa~)	12aaL	.
.	.	.	.	.	.	.	12dd	.
.	.	.	.	.	8AJ	.	.	.
.	.	.	.	.	.	.	12aJ	.
=2	=2	=2	=2	=2	=2	=2	=2	=2
4F]	4BBB-]	4f]	4ryy	.	4d'	4aa	12aaL	.
.	.	.	.	.	.	.	12dd	.
.	.	.	.	.	.	.	12aJ	.
4G	4FF	(4g~	2A 2e-	.	8cL	4gg~)	(12ggL	.
.	.	.	.	.	.	.	12cc	.
.	.	.	.	.	8GJ	.	.	.
.	.	.	.	.	.	.	12gJ	.
[4F	[4G	[4f)	.	.	4c'	4ryy	12ggL	.
.	.	.	.	.	.	.	12cc	.
.	.	.	.	.	.	.	12gJ)	.
*	*	*	*	*	*clefF4	*	*	*
=3	=3	=3	=3	=3	=3	=3	=3	=3
4F]	4G]	(4f]	2B- 2d	.	8B-L	(4dd	12ddL	.
.	.	.	.	.	.	.	12b-	.
.	.	.	.	.	8FJ	.	.	.
.	.	.	.	.	.	.	12dJ	.
4G	4FF	4g	.	.	8GL	4ryy	12ddL	.
.	.	.	.	.	.	.	12b-	.
.	.	.	.	.	8B-J	.	.	.
.	.	.	.	.	.	.	12dJ	.
[4F	[4BBB-	[4f)	[4A [4e-	.	8cL	4gg	((12ggL	<
.	.	.	.	.	.	.	12cc	.
.	.	.	.	.	8FJ	.	.	.
.	.	.	.	.	.	.	12gJ)	.
=4	=4	=4	=4	=4	=4	=4	=4	=4
4F]	4BBB-]	4f]	4A] 4e-]	.	8GL	4gg	12ggL	.
.	.	.	.	.	.	.	12cc	.
.	.	.	.	.	8dJ	.	.	.
.	.	.	.	.	.	.	12gJ)	.
*	*	*	*	*	*clefG2	*	*	*
4G	4FF	(4g~	2A 2e-	< [	8fL	4aa	(12aaL	.
.	.	.	.	.	.	.	12dd	.
.	.	.	.	.	8cJ	.	.	.
.	.	.	.	.	.	.	12aJ	.
[4F	[4G	[4f)	.	.	8dL	4aa	12aaL	.
.	.	.	.	.	.	.	12dd	.
.	.	.	.	.	8gJ	.	.	.
.	.	.	.	.	.	.	12aJ)	[
=5	=5	=5	=5	=5	=5	=5	=5	=5
4F]	4G]	(4f]	2B- 2d	p	4.ee-	(4eee-	12eee-L	p
.	.	.	.	.	.	.	12bb-	.
.	.	.	.	.	.	.	12ffJ	.
4G	4FF	4g	.	.	.	12ryy	12bb-L	.
.	.	.	.	.	.	12ryy	12eee-	.
.	.	.	.	.	8dd	.	.	.
.	.	.	.	.	.	12ddd	12dddJ	.
*v	*v	*	*	*	*	*v	*v	*
*	*v	*v	*	*	*	*
*	*	*	*	*Xtuplet	*
*^	*^	*	*	*^	*
[4F	[4BBB-	[4f	[4B- [4d	.	[4ee-	4eee-	12eee-L	<
.	.	.	.	.	.	.	12bb-	.
.	.	.	.	.	.	.	12ffJ	.
!!linebreak:original
=6	=6	=6	=6	=6	=6	=6	=6	=6
4F]	4BBB-]	4f]	4ryy	.	6ee-]	12ryy	12bb-L	.
.	.	.	.	.	.	12ryy	12eee-	.
.	.	.	.	.	12dd	12ddd	12dddJ	.
4G	4FF	4g	2B-] 2d]	.	[4cc	4ccc	12cccL	.
.	.	.	.	.	.	.	12ff	.
.	.	.	.	.	.	.	12ddJ	.
4F	4G	4f)	.	.	6cc]	12ryy	12ffL	.
.	.	.	.	.	.	12ryy	12ccc	.
.	.	.	.	.	12b-	12bb-)	12bb-J	[
*	*	*v	*v	*	*	*	*	*
=7	=7	=7	=7	=7	=7	=7	=7
!	!	!	!	!	!LO:TX:b:i:t=lusigando	!	!
!	!	!	!	!	!LO:TX:a:B:t=B	!	!
[2.B- [2.d-X	4F	(2ent	pp	8enL	(4gg-X	12gg-L	pp
.	.	.	.	.	.	12b-	.
.	.	.	.	8d-X	.	.	.
.	.	.	.	.	.	12dd-XJ	.
.	4FF	.	.	8B-	12ryy	12ff-XL	.
.	.	.	.	.	12ryy	12gg-	.
.	.	.	.	8FJ	.	.	.
.	.	.	.	.	12aa	12aanJ	.
.	[4BBB-	[4eent)	.	8eL	4gg-	12gg-L	.
.	.	.	.	.	.	12b-	.
.	.	.	.	8d-	.	.	.
.	.	.	.	.	.	12dd-J	.
=8	=8	=8	=8	=8	=8	=8	=8
*	*	*^	*	*	*	*	*
4B-] 4d-X]	4BBB-]	4een_	2ryy	.	8B-	12ryy	12ff-XL	.
.	.	.	.	.	.	12ryy	12gg-X	.
.	.	.	.	.	8FJ	.	.	.
.	.	.	.	.	.	12aa	12aaJ	.
2F 2B- 2d	4ryy	2ent	.	.	8enL	4gg-	12gg-L	.
.	.	.	.	.	.	.	12b-	.
.	.	.	.	.	8d-X	.	.	.
.	.	.	.	.	.	.	12dd-XJ	.
.	4ryy	.	16ryy	.	8B-	12ryy	12ff-L	.
.	.	.	16ryy	.	.	.	.	.
.	.	.	.	.	.	12ryy	12gg-	.
.	.	.	16d#XLL	.	8FJ	.	.	.
.	.	.	.	.	.	12aa)	12aaJ	.
.	.	.	16enJJ	.	.	.	.	.
=9	=9	=9	=9	=9	=9	=9	=9	=9
!	!	!	!	!	!	!LO:TX:b:i:t=dolce	!	!
!	!	!	!	!	!	!LO:TX:a:B:t=C	!	!
4F	4G	(4f	2.B- 2.dn	p	4.e-X	(4eee-	12eee-L	p
.	.	.	.	.	.	.	12bb-	.
.	.	.	.	.	.	.	12ffnJ	.
4G	4FF	4g	.	.	.	12ryy	12bb-L	.
.	.	.	.	.	.	12ryy	12eee-	.
.	.	.	.	.	8dn	.	.	.
.	.	.	.	.	.	12dddn	12dddJ	.
*v	*v	*	*	*	*	*v	*v	*
*	*	*	*	*	*Xtuplet	*
*^	*	*	*	*	*^	*
[4F	[4BBB-	[4f	.	.	[4e-	4eee-	12eee-L	.
.	.	.	.	.	.	.	12bb-	.
.	.	.	.	.	.	.	12ffJ	.
=10	=10	=10	=10	=10	=10	=10	=10	=10
4F]	4BBB-]	4f]	4ryy	.	6e-]	12ryy	12bb-L	.
.	.	.	.	.	.	12ryy	12eee-	.
.	.	.	.	.	12d	12ddd	12dddJ	.
4A-X	4FF	4a-X	2d 2f	.	[4c	4ccc	12cccL	.
.	.	.	.	.	.	.	12ff	.
.	.	.	.	.	.	.	12ddJ	.
4B-	4G	4b-)	.	.	6c]	12ryy	12ffL	.
.	.	.	.	.	.	12ryy	12ccc	.
.	.	.	.	.	12B-	12bb-)	12bb-J	.
!!pagebreak:original
=11	=11	=11	=11	=11	=11	=11	=11	=11
!	!	!LO:TX:a:i:t=cresc., poco	!	!	!	!LO:TX:b:i:t=cresc., poco	!	!
4Bn	4F	(4bn	2.e- 2.a-X	.	4.e-	(4eee-	12eee-L	.
.	.	.	.	.	.	.	12aa-X	.
.	.	.	.	.	.	.	12ffJ	.
4c	4FF	4cc	.	.	.	12ryy	12bb-L	.
.	.	.	.	.	.	12ryy	12eee-	.
.	.	.	.	.	8d	.	.	.
.	.	.	.	.	.	12ddd	12dddJ	.
*v	*v	*	*	*	*	*v	*v	*
*	*	*	*	*	*Xtuplet	*
*^	*	*	*	*	*^	*
[4B	[4BBB-	[4b-X	.	.	[4e-	4eee-	12eee-L	.
.	.	.	.	.	.	.	12aa-	.
.	.	.	.	.	.	.	12ffJ	.
=12	=12	=12	=12	=12	=12	=12	=12	=12
4F	4BBB-]	4f	2B- 2e-	.	6e-]	12ryy	12aa-XL	.
.	.	.	.	.	.	12ryy	12eee-	.
.	.	.	.	.	12c	12ccc	12cccJ	.
4A-X	4FF	4a-X	.	.	[4e-	4eee-	12eee-L	.
.	.	.	.	.	.	.	12aa-	.
.	.	.	.	.	.	.	12ffJ	.
4B-	4F	4b-])	4e- 4f	.	6e-]	12ryy	12aa-L	.
.	.	.	.	.	.	12ryy	12eee-	.
!	!	!	!	!	!	!LO:TX:a:B:t=D	!	!
.	.	.	.	.	12f	12fff)	12fffJ	.
*v	*v	*	*	*	*	*v	*v	*
*	*v	*v	*	*	*	*
=13||	=13||	=13||	=13||	=13||	=13||
*k[b-e-a-d-g-c-]	*k[b-e-a-d-g-c-]	*	*k[b-e-a-d-g-c-]	*k[b-e-a-d-g-c-]	*
*G-:	*G-:	*	*G-:	*G-:	*
*	*Xtuplet	*	*	*	*
!	!LO:TX:b:i:t=  subito	!	!	!LO:TX:b:i:t=  subito	!
4r	(12d-L	p	2cc-' 2dd-	(12aaa-L	p
.	12e-	.	.	12ggg-	.
.	12fJ	.	.	12aa-J	.
4CC-X' 4C-X	12e-L	.	.	12aa-L	.
.	12d-	.	.	12gg-	.
.	12c-J)	.	.	12a-J	.
4AAA-' 4AA-	(12d-L	.	[4d-' [4e-	(12gg-L	.
.	12e-	.	.	12aa-)	.
.	12fJ	.	.	(12aa-J	.
=14	=14	=14	=14	=14	=14
4%3r	12e-L	.	4d-] 4e-]	12aaa-L)	.
.	12d-	.	.	12ggg-	.
.	12c-J)	.	.	12aa-J	.
.	(12d-L	.	2g-' 2a-	12aa-L	.
.	12e-	.	.	12gg-	.
.	12fJ	.	.	12a-J	.
.	12e-L	.	.	(12gg-L	.
.	12d-	.	.	12aa-)	.
.	12c-J)	.	.	(12aa-J)	.
!!linebreak:original
=15	=15	=15	=15	=15	=15
4r	(12dd-L	pp	2cc-' 2dd-	(12aaa-L)	pp
.	12ee-	.	.	12ggg-	.
.	12ffJ	.	.	12aa-J	.
4CC-' 4C-	12ee-L	.	.	12aa-L	.
.	12dd-	.	.	12gg-	.
.	12cc-J)	.	.	12a-J	.
4AAA-' 4AA-	(12dd-L	.	[4d-' [4e-	(12gg-L	.
.	12ee-	.	.	12aa-)	.
.	12ffJ	.	.	(12aa-J	.
=16	=16	=16	=16	=16	=16
4r	12ee-L	.	4d-] 4e-]	12aaa-L)	.
.	12dd-	.	.	12ggg-	.
.	12cc-J)	.	.	12aa-J	.
*clefG2	*	*	*	*	*
4ryy	.	.	2g-' 2a-	12aa-L	.
.	.	.	.	12gg-	.
.	.	.	.	12a-J	.
4ryy	.	.	.	(12gg-L	.
.	.	.	.	12aa-)	.
.	.	.	.	(12aa-J)	.
=17	=17	=17	=17	=17	=17
*	*8va	*	*	*	*
2.dd-	(12eeee-L	.	2cc-' 2dd-	(12aaa-L)	.
.	12dddd-	.	.	12ggg-	.
.	12cccc-J	.	.	12aa-J	.
.	12bbb-L	.	.	12aa-L	.
.	12aaa-	.	.	12gg-	.
.	12ggg-J	.	.	12a-J	.
.	12fffL	.	[4d-' [4e-	(12gg-L	.
.	12eee-	.	.	12aa-)	.
*	*X8va	*	*	*	*
.	12ddd-J	.	.	(12aa-J	.
=18	=18	=18	=18	=18	=18
4dd-	12ccc-L	>	4d-] 4e-]	12aaa-L)	>
.	12bb-	.	.	12ggg-	.
.	12aa-J	.	.	12aa-J	.
4r	12gg-L	.	2g-' 2a-	12aa-L	.
.	12ff	.	.	12gg-	.
.	12ee-J	.	.	12a-J	.
4r	16dd-LL	.	.	12gg-L	.
.	16cc-	.	.	.	.
.	.	.	.	12aa-	.
.	16b-	.	.	.	.
.	.	.	.	12aaa-J)	]
.	16a-JJ)	]	.	.	.
=||	=||	=||	=||	=||	=||
*-	*-	*-	*-	*-	*-
!!!system-decoration: [({(s1,s2)})][({(s3,s4)})]
